azure-patterns/svg-devops-traceability.svg

<svg xmlns="http://www.w3.org/2000/svg" viewBox="0 0 80 80">
                                
                            
    <rect width="80" height="80" fill="black" fill-opacity="0"></rect>
    <circle cx="40" cy="40" r="40" fill="#854CC7" fill-opacity="0.05"></circle>
    <path d="M39.6406 48L38.6406 50H26V40H34V34H42V28H54V36H52V30H44V36H36V42H28V48H39.6406ZM54.6719 53.1094C54.8177 53.401 54.8906 53.6979 54.8906 54C54.8906 54.2708 54.8385 54.5312 54.7344 54.7812C54.6302 55.0208 54.4844 55.2344 54.2969 55.4219C54.1198 55.599 53.9062 55.7396 53.6562 55.8438C53.4167 55.9479 53.1615 56 52.8906 56H41.1094C40.8385 56 40.5781 55.9479 40.3281 55.8438C40.0885 55.7396 39.875 55.599 39.6875 55.4219C39.5104 55.2344 39.3698 55.0208 39.2656 54.7812C39.1615 54.5312 39.1094 54.2708 39.1094 54C39.1094 53.6979 39.1823 53.401 39.3281 53.1094L44 43.7656V40H42V38H52V40H50V43.7656L54.6719 53.1094ZM50.8906 50L48 44.2344V40H46V44.2344L43.1094 50H50.8906Z" fill="#854CC7"></path>
</svg>

<svg xmlns="http://www.w3.org/2000/svg" viewBox="0 0 80 80"><path fill="none" d="M0 0h80v80H0z"/><circle cx="40" cy="40" r="40" fill="#854CC7" fill-opacity=".05"/><path d="M39.64 48l-1 2H26V40h8v-6h8v-6h12v8h-2v-6h-8v6h-8v6h-8v6h11.64zm15.032 5.11a1.972 1.972 0 0 1-.375 2.312 1.96 1.96 0 0 1-.64.422 1.9 1.9 0 0 1-.766.156H41.109c-.27 0-.53-.052-.78-.156a2.207 2.207 0 0 1-.642-.422 2.208 2.208 0 0 1-.421-.64 1.972 1.972 0 0 1 .063-1.672L44 43.765V40h-2v-2h10v2h-2v3.766l4.672 9.343zM50.89 50L48 44.234V40h-2v4.234L43.11 50h7.78z" fill="#854CC7"/></svg>
